X:1
T:Title
%%score { ( 1 3 ) | ( 2 4 ) }
L:1/8
Q:1/4=100
M:4/4
K:F
V:1 treble nm="Grand Piano"
V:3 treble 
V:2 treble 
V:4 treble 
V:1
 c>c c>c d>d d2 | c4 A4 | z4 [Ec]4 | [FA]4 c4 | d2 d>d c2 c2 | z4 A4 | %6
w: Harry~Dixon~Loes * * * * * *||||||
 [Dc]>[DB] [DF]>[^CG] [=CA]>[B,EG] [A,F]2 | E2 z2 z4 |] %8
w: ||
V:2
 [F,A,F]>[F,A,F] [F,A,F]>[F,A,F] [B,F]>[B,F] [B,F]2 | [F,A,F]4 [F,CF]4 | %2
 [C,C]2 [C,C]2 [C,G,]2 C,2 | z4 F4[K:treble] | [B,F]2 [B,F]>[B,F] [A,CF]2 [A,CF]2 | z4 F2 z2 | %6
 [B,,B,]>[B,,B,] [B,,B,]>[B,,B,] [C,F,]>C, C,2 | z2 C2 F,4 |] %8
V:3
 x8 | x8 | [EG]4 z2 C2 | C>C C2 z2 A,c | x8 | B2 B>B z2 _E2 | x8 | [B,G]4 [A,CF]4 |] %8
V:4
 x8 | x8 | x8 | F,>F, F,2 [F,A,]2 F,[K:treble][F,A,F] | x8 | [G,CE]2 [G,CE]>[G,CE] [F,C]4 | x8 | %7
 C,4 z4 |] %8

